X:156
T:Right Lock of Fiddlers* (h)
B:NFID.246b ("untitled hornpipe")
156right
S:PT
L:1/8
M:C
R:hornpipe
Q:300
K:D
ag|(3faf de (3faf de|fgaf bagf|(3efe cA eAcA|(3Bcd ef geag|
(3faf de (3faf de|fgaf bagf|(3efe ce ABcd|e2d2d2:|
zA|BcdA BcdA|BcdA Bcd2|cdef gf (3efe|defd A2AA|
BcdA BcdA|BcdA Bcd2|cdef gfec|e2d2d2:|

%%%

